configs/network-icons/blast-color.svg

<svg width="30" height="30" viewBox="0 0 30 30" fill="none" xmlns="http://www.w3.org/2000/svg">
<g clip-path="url(#clip0_11414_26214)">
<circle cx="15" cy="15" r="90" fill="#0E0E0B"/>
<path fill-rule="evenodd" clip-rule="evenodd" d="M24.6556 13.1626L21.2388 14.8651L21.2155 14.9118L23.5362 16.6143L22.3001 20.4392L18.8366 22.1534L20.9123 15.7747H13.5191L14.2305 13.5591H21.6237L22.6032 10.5271H4.16675L7.7934 7.83337H23.4779L25.8334 9.54758L24.6556 13.1626ZM11.513 12.7661L9.37902 19.413H19.7225L18.8363 22.1534H5.58911L9.1458 10.9936L11.513 12.7661Z" fill="#FCFC54"/>
</g>
<defs>
<clipPath id="clip0_11414_26214">
<rect width="30" height="30" rx="15" fill="white"/>
</clipPath>
</defs>
</svg>

<svg xmlns="http://www.w3.org/2000/svg" fill="none" viewBox="0 0 30 30">
  <g clip-path="url(#blast-color_svg__a)">
    <circle cx="15" cy="15" r="90" fill="#0E0E0B"/>
    <path fill="#FCFC54" fill-rule="evenodd" d="m24.656 13.163-3.417 1.702-.024.047 2.321 1.702L22.3 20.44l-3.463 1.714 2.075-6.378H13.52l.711-2.216h7.394l.98-3.032H4.166l3.626-2.694h15.685l2.355 1.715-1.177 3.615Zm-13.143-.397-2.134 6.647h10.344l-.887 2.74H5.59l3.557-11.16 2.367 1.773Z" clip-rule="evenodd"/>
  </g>
  <defs>
    <clipPath id="blast-color_svg__a">
      <rect width="30" height="30" fill="#fff" rx="15"/>
    </clipPath>
  </defs>
</svg>
